icon-svg/smart-plug-sonoff.svg

<svg xmlns="http://www.w3.org/2000/svg" viewBox="0 0 24 24"><path fill="#44739e" d="M12 3.476a4.361 4.361 0 1 0 4.361 4.361A4.366 4.366 0 0 0 12 3.476M9.919 8.559a.723.723 0 1 1 .723-.722.72.72 0 0 1-.723.722m4.102 0a.723.723 0 1 1 .723-.722.72.72 0 0 1-.723.722M12.382 2h-.764a5.513 5.513 0 0 0-5.506 5.737l.371 9.022a5.513 5.513 0 0 0 11.012.013l.393-9.022A5.513 5.513 0 0 0 12.382 2M12 19.657a1.42 1.42 0 1 1 1.42-1.419A1.42 1.42 0 0 1 12 19.657m0-6.752a5.068 5.068 0 1 1 5.068-5.068A5.07 5.07 0 0 1 12 12.905"/></svg>

<svg xmlns="http://www.w3.org/2000/svg"  fill="#44739e"  width="24" height="24" viewBox="0 0 24 24">
  <path id="Colore_riempimento_1" data-name="Colore riempimento 1" class="cls-1" d="M 12,3.473 A 4.351,4.351 0 1 0 16.351,7.823 4.356,4.356 0 0 0 12,3.473 Z M 9.924,8.544 A 0.721,0.721 0 1 1 10.645,7.823 0.721,0.721 0 0 1 9.924,8.544 Z m 4.093,0 A 0.721,0.721 0 1 1 14.738,7.823 0.721,0.721 0 0 1 14.017,8.544 Z M 12.381,2 H 11.619 A 5.5,5.5 0 0 0 6.126,7.724 l 0.37,9 a 5.5,5.5 0 0 0 10.986,0.013 l 0.392,-9 A 5.5,5.5 0 0 0 12.381,2 Z M 12,19.616 A 1.417,1.417 0 1 1 13.417,18.2 1.417,1.417 0 0 1 12,19.616 Z m 0,-6.737 A 5.056,5.056 0 1 1 17.056,7.823 5.061,5.061 0 0 1 12,12.879 Z"/>
</svg>
